assets/fast.svg

<svg width="64" height="64" viewBox="0 0 64 64" fill="none" xmlns="http://www.w3.org/2000/svg">
<g filter="url(#filter0_i)">
<rect width="64" height="64" rx="10" fill="#7631EA"/>
<rect width="64" height="64" rx="10" fill="url(#paint0_linear)"/>
</g>
<g filter="url(#filter1_d)">
<path d="M33.3563 17.4141C33.4789 16.4207 32.2278 15.8832 31.5917 16.6561L17.3461 33.9645C16.8091 34.6169 17.2732 35.6 18.1182 35.6H30.869C31.4698 35.6 31.935 36.1262 31.8614 36.7225L30.6437 46.5859C30.5211 47.5793 31.7722 48.1168 32.4083 47.3439L46.6539 30.0355C47.1909 29.3831 46.7268 28.4 45.8818 28.4H33.131C32.5302 28.4 32.065 27.8738 32.1386 27.2775L33.3563 17.4141Z" fill="#C4C4C4"/>
<path d="M33.3563 17.4141C33.4789 16.4207 32.2278 15.8832 31.5917 16.6561L17.3461 33.9645C16.8091 34.6169 17.2732 35.6 18.1182 35.6H30.869C31.4698 35.6 31.935 36.1262 31.8614 36.7225L30.6437 46.5859C30.5211 47.5793 31.7722 48.1168 32.4083 47.3439L46.6539 30.0355C47.1909 29.3831 46.7268 28.4 45.8818 28.4H33.131C32.5302 28.4 32.065 27.8738 32.1386 27.2775L33.3563 17.4141Z" fill="url(#paint1_linear)"/>
</g>
<defs>
<filter id="filter0_i" x="0" y="0" width="64" height="65" filterUnits="userSpaceOnUse" color-interpolation-filters="sRGB">
<feFlood flood-opacity="0" result="BackgroundImageFix"/>
<feBlend mode="normal" in="SourceGraphic" in2="BackgroundImageFix" result="shape"/>
<feColorMatrix in="SourceAlpha" type="matrix" values="0 0 0 0 0 0 0 0 0 0 0 0 0 0 0 0 0 0 127 0" result="hardAlpha"/>
<feOffset dy="1"/>
<feGaussianBlur stdDeviation="0.5"/>
<feComposite in2="hardAlpha" operator="arithmetic" k2="-1" k3="1"/>
<feColorMatrix type="matrix" values="0 0 0 0 0.96178 0 0 0 0 0.955184 0 0 0 0 0.966963 0 0 0 0.25 0"/>
<feBlend mode="normal" in2="shape" result="effect1_innerShadow"/>
</filter>
<filter id="filter1_d" x="13.1172" y="16.2886" width="37.7674" height="39.4233" filterUnits="userSpaceOnUse" color-interpolation-filters="sRGB">
<feFlood flood-opacity="0" result="BackgroundImageFix"/>
<feColorMatrix in="SourceAlpha" type="matrix" values="0 0 0 0 0 0 0 0 0 0 0 0 0 0 0 0 0 0 127 0"/>
<feOffset dy="4"/>
<feGaussianBlur stdDeviation="2"/>
<feColorMatrix type="matrix" values="0 0 0 0 0 0 0 0 0 0 0 0 0 0 0 0 0 0 0.15 0"/>
<feBlend mode="normal" in2="BackgroundImageFix" result="effect1_dropShadow"/>
<feBlend mode="normal" in="SourceGraphic" in2="effect1_dropShadow" result="shape"/>
</filter>
<linearGradient id="paint0_linear" x1="32" y1="0" x2="32" y2="64" gradientUnits="userSpaceOnUse">
<stop stop-color="#8614F8"/>
<stop offset="1" stop-color="#760BE0"/>
</linearGradient>
<linearGradient id="paint1_linear" x1="27.0923" y1="15.9688" x2="38.1082" y2="47.8922" gradientUnits="userSpaceOnUse">
<stop stop-color="white"/>
<stop offset="1" stop-color="#CCBED5"/>
</linearGradient>
</defs>
</svg>

<svg width="64" height="64" viewBox="0 0 64 64" fill="none" xmlns="http://www.w3.org/2000/svg">
  <g filter="url(#a)">
    <rect width="64" height="64" rx="10" fill="#7631EA"/>
    <rect width="64" height="64" rx="10" fill="url(#b)"/>
  </g>
  <g filter="url(#c)">
    <path d="M33.356 17.414c.123-.993-1.128-1.53-1.764-.758L17.346 33.965a1 1 0 0 0 .772 1.635H30.87a1 1 0 0 1 .992 1.122l-1.217 9.864c-.123.993 1.128 1.53 1.764.758l14.246-17.309a1 1 0 0 0-.772-1.635H33.13a1 1 0 0 1-.992-1.122l1.217-9.864Z" fill="#C4C4C4"/>
    <path d="M33.356 17.414c.123-.993-1.128-1.53-1.764-.758L17.346 33.965a1 1 0 0 0 .772 1.635H30.87a1 1 0 0 1 .992 1.122l-1.217 9.864c-.123.993 1.128 1.53 1.764.758l14.246-17.309a1 1 0 0 0-.772-1.635H33.13a1 1 0 0 1-.992-1.122l1.217-9.864Z" fill="url(#d)"/>
  </g>
  <defs>
    <linearGradient id="b" x1="32" y1="0" x2="32" y2="64" gradientUnits="userSpaceOnUse">
      <stop stop-color="#8614F8"/>
      <stop offset="1" stop-color="#760BE0"/>
    </linearGradient>
    <linearGradient id="d" x1="27.092" y1="15.969" x2="38.108" y2="47.892" gradientUnits="userSpaceOnUse">
      <stop stop-color="#fff"/>
      <stop offset="1" stop-color="#CCBED5"/>
    </linearGradient>
    <filter id="a" x="0" y="0" width="64" height="65" filterUnits="userSpaceOnUse" color-interpolation-filters="sRGB">
      <feFlood flood-opacity="0" result="BackgroundImageFix"/>
      <feBlend in="SourceGraphic" in2="BackgroundImageFix" result="shape"/>
      <feColorMatrix in="SourceAlpha" values="0 0 0 0 0 0 0 0 0 0 0 0 0 0 0 0 0 0 127 0" result="hardAlpha"/>
      <feOffset dy="1"/>
      <feGaussianBlur stdDeviation=".5"/>
      <feComposite in2="hardAlpha" operator="arithmetic" k2="-1" k3="1"/>
      <feColorMatrix values="0 0 0 0 0.96178 0 0 0 0 0.955184 0 0 0 0 0.966963 0 0 0 0.25 0"/>
      <feBlend in2="shape" result="effect1_innerShadow"/>
    </filter>
    <filter id="c" x="13.117" y="16.289" width="37.767" height="39.423" filterUnits="userSpaceOnUse" color-interpolation-filters="sRGB">
      <feFlood flood-opacity="0" result="BackgroundImageFix"/>
      <feColorMatrix in="SourceAlpha" values="0 0 0 0 0 0 0 0 0 0 0 0 0 0 0 0 0 0 127 0"/>
      <feOffset dy="4"/>
      <feGaussianBlur stdDeviation="2"/>
      <feColorMatrix values="0 0 0 0 0 0 0 0 0 0 0 0 0 0 0 0 0 0 0.15 0"/>
      <feBlend in2="BackgroundImageFix" result="effect1_dropShadow"/>
      <feBlend in="SourceGraphic" in2="effect1_dropShadow" result="shape"/>
    </filter>
  </defs>
</svg>
